src/assets/duotone/TransactionMinus.svg

<svg width="24" height="24" viewBox="0 0 24 24"  xmlns="http://www.w3.org/2000/svg">
<path opacity="0.4" d="M6.73022 19.7C7.55022 18.82 8.80023 18.89 9.52023 19.85L10.5302 21.2C11.3402 22.27 12.6502 22.27 13.4602 21.2L14.4702 19.85C15.1902 18.89 16.4402 18.82 17.2602 19.7C19.0402 21.6 20.4902 20.97 20.4902 18.31V7.04C20.4902 3.01 19.5502 2 15.7702 2H8.21024C4.43024 2 3.49023 3.01 3.49023 7.04V18.3C3.50023 20.97 4.96022 21.59 6.73022 19.7Z" />
<path d="M14.75 10.75H9.25C8.84 10.75 8.5 10.41 8.5 10C8.5 9.59 8.84 9.25 9.25 9.25H14.75C15.16 9.25 15.5 9.59 15.5 10C15.5 10.41 15.16 10.75 14.75 10.75Z" />
</svg>

<?xml version="1.0" encoding="UTF-8"?>
<svg width="24" height="24" viewBox="0 0 24 24" xmlns="http://www.w3.org/2000/svg">
 <path d="m6.7302 19.7c0.82-0.88 2.07-0.81 2.79 0.15l1.01 1.35c0.81 1.07 2.12 1.07 2.93 0l1.01-1.35c0.72-0.96 1.97-1.03 2.79-0.15 1.78 1.9 3.23 1.27 3.23-1.39v-11.27c0-4.03-0.94-5.04-4.72-5.04h-7.56c-3.78 0-4.72 1.01-4.72 5.04v11.26c0.01 2.67 1.47 3.29 3.24 1.4z" opacity=".4"/>
 <path d="m14.75 10.75h-5.5c-0.41 0-0.75-0.34-0.75-0.75s0.34-0.75 0.75-0.75h5.5c0.41 0 0.75 0.34 0.75 0.75s-0.34 0.75-0.75 0.75z"/>
</svg>
